X: 9550
T: Dave Collins'
R: jig
M: 6/8
K: Fmajor
{A}B2 F DFB|{cd}c2B cBG|B2 G {A}GFD|DFD ~C3|
~B,3 DB,D|B,DF GFD|F/G/AB cAF|Bdc B3:|
~d3 ~c3|Bdg fdf|{ga}g2f dcd|fga ~g2a|
bag agf|gfd cAF|F/G/AB cAF|Bdc B2 c|
~d3 ~c3|Bdg fdf|{ga}g2f dcB|GFD ~C3|
~B,3 DB,D|B,DF GFD|F/G/AB cAF|Bdc B3||

